X: 9
T: Missa Sine nomine i / Sanctus
N: Derived from Tin1002d-Missa_Sine_nomine_I-Sanctus.krn
C: Johannes Tinctoris
%%abc-version 2.0
%%abcx-abcm2ps-target-version 5.9.1 (29 Sep 2008)
%%abc-creator hum2abc beta
%%abcx-conversion-date 2019/02/17 07:34:55
%%abc-edited-by Jesse Rodin
%%abc-edited-by Chris Gage 01-13-2015
%%abcx-initial-encoding-date 2015/01/18/
%%humdrum-veritas 459603965
%%humdrum-veritas-data 2039843176
%%linebreak <none>
%%barnumbers 0
L: 1/4
M: 3/1
Q: 1/2=120
V: 1 clef=treble-8
V: 2 clef=bass
V: 3 clef=bass
K: Bb
[V:1] c8B4 | 
[V:2] C,6E,2D,4 | 
[V:3] C,3B,,A,,F,,C,2G,,4 | 
[V:1] c6d2e3d/c/ | 
[V:2] C,2E,4F,2G,4- | 
[V:3] C,,3C,,2E,,D,,2C,,4- | 
[V:1] e2d3cB2A4 | 
[V:2] G,8^F,4 | 
[V:3] C,,2G,,3A,,B,,C,D,4 | 
[V:1] G12- | 
[V:2] G,2zC,2D,E,D,/C,/B,,2E,2- | 
[V:3] z2E,3D,C,B,,/A,,/G,,2C,2- | 
[V:1] G12 | 
[V:2] E,D,/C,/D,2C,6G,,2 | 
[V:3] C,B,,/A,,/B,,2C,2C,,2z2E,,2- | 
[V:1] E3FG2C4B2- | 
[V:2] G,3F,E,4z4 | 
[V:3] E,,F,,G,,2C,,4F,,2E,,2- | 
[V:1] Bcd2G2c3ABc | 
[V:2] E,2F,2G,2C,2F,2D,E, | 
[V:3] E,,2D,,2E,,2zF,,3G,,E,, | 
[V:1] d2e3dc4=B2 | 
[V:2] F,2G,3F,E,2D,4 | 
[V:3] D,,2C,,3D,,E,,2F,,2G,,2 | 
[V:1] c8z4 | 
[V:2] C,3B,,A,,G,,C,4=B,,2 | 
[V:3] C,,2F,,3E,,C,,2D,,4 | 
[V:1] e6d4c2- | 
[V:2] C,4z2G,,4G,2- | 
[V:3] C,,2C,3B,,/C,/D,2B,,2C,2 | 
[V:1] c4B4A4- | 
[V:2] G,^F,/=E,/F,2=G,4=F,3_E, | 
[V:3] A,,4G,,4D,,2F,,2- | 
[V:1] A2G4c3ABc- | 
[V:2] C,4z2E,3F,D,E, | 
[V:3] F,,2E,,2C,,3C,2D,2C, | 
[V:1] cBG3F/E/D2C4 | 
[V:2] F,G,2E,2D,/C,/=B,,3/A,,/C,3_B,,/A,,/ | 
[V:3] A,,B,,C,4D,2E,3D,/C,/ | 
[V:1] z2E3FG3_AGF/E/ | 
[V:2] G,,2G,2C,3D,E,3F, | 
[V:3] B,,A,,C,2z2C,6 | 
[V:1] D4E4D4 | 
[V:2] G,4G,4G,3F, | 
[V:3] G,,4C,4G,,4 | 
[V:1] z2d3cBA/G/A2G2- | 
[V:2] E,D,/C,/D,G,,2A,,B,,2C,3D, | 
[V:3] C,2G,,B,,2A,,G,,2F,,2C,2- | 
[V:1] GABcd2e3dd2- | 
[V:2] E,F,G,A,B,2G,4F,2 | 
[V:3] C,A,,G,,4C,3G,,B,,2 | 
[V:1] d2c2=B8 | 
[V:2] E,4D,8 | 
[V:3] C,4G,,8 | 
[V:1] z4e3d/c/B2c2 | 
[V:2] G,4G,3F,/E,/D,2C,2 | 
[V:3] E,,2C,,3D,,E,,F,,G,,2zA,, | 
[V:1] dc2=Bc4d2e2 | 
[V:2] B,,C,D,2E,3D,/C,/B,,2C,2 | 
[V:3] G,,A,,G,,2C,,4G,,2zC, | 
[V:1] zed2G3F/E/D2E2 | 
[V:2] D,C,2B,,C,4G,,2zC, | 
[V:3] B,,C,G,,2E,3D,/C,/B,,2C,2 | 
[V:1] FED2C4C4 | 
[V:2] B,,C,G,,2E,3D,E,F,G,2- | 
[V:3] D,C,2=B,,C,8 | 
[V:1] z2E3DEF[M:3/1](3G2A2B2 | 
[V:2] G,F,E,D,D,4E,2F,D, | 
[V:3] C,3B,,[M:3/1](3G,,3A,,B,,2[M:3/1]C,2D,2 | 
[V:1] (3:2:4c3B A G[M:3/1]A2B3AG2- | 
[V:2] C,2D,C,E,2F,3E,D,2- | 
[V:3] A,,2B,,C,3D,3C,B,,2 | 
[V:1] G2^F2G8 | 
[V:2] D,2C,2D,4C,3D, | 
[V:3] A,,4G,,4z2C,2- | 
[V:1] z4A4B4 | 
[V:2] E,2F,3E,C,2B,,C,D,2 | 
[V:3] C,2F,,6G,,E,,D,,2 | 
[V:1] c6d4e2- | 
[V:2] E,2C,2A,,2G,,A,,B,,2C,E,- | 
[V:3] C,,2zC,2A,,B,,C,D,2C,2- | 
[V:1] e4f4e2d2- | 
[V:2] E,F,G,2_A,2F,2G,2zG,- | 
[V:3] C,B,,/A,,/G,,2F,,2D,,2C,,2zG,,- | 
[V:1] dcB2AGc4B2 | 
[V:2] G,/F,/E,D,2z2G,3F,/E,/F,2 | 
[V:3] G,,A,,B,,2C,2E,2D,4 | 
[V:1] e3d/e/dcf4e2 | 
[V:2] G,4F,3E,D,2C,2 | 
[V:3] C,4z2D,2B,,2C,2 | 
[V:1] d3c/B/A2G4c2- | 
[V:2] D,3E,F,2G,2E,2C,2 | 
[V:3] B,,3A,,/G,,/F,,2E,,2C,,4 | 
[V:1] c2=B2c8 | 
[V:2] D,4C,8 | 
[V:3] G,,4z4z4 | 
[V:1] c12 ||  
[V:2] C,12 ||  
[V:3] C,,12 ||  
[V:1]  [K:Bb] [K:clef=treble-8][M:3/1]z4z4c4 | 
[V:2]  [K:Bb] [K:clef=bass][M:3/1]F,4F,6E,D, | 
[V:3]  [K:Bb] [K:clef=bass][M:3/1]z12 | 
[V:1] c6BAG3A/B/ | 
[V:2] C,3D,/E,/F,4E,2C,2- | 
[V:3] z12 | 
[V:1] c4B2G3FE2 | 
[V:2] C,B,,A,,2G,,3A,,B,,2C,2- | 
[V:3] z12 | 
[V:1] D4C2E3DC2 | 
[V:2] C,2=B,,2C,4G,4 | 
[V:3] z12 | 
[V:1] [M:3/1](3D2E2F2(3G2A2B2(3c2d2e2 | 
[V:2] F,4E,8 | 
[V:3] z12 | 
[V:1] [M:3/1]fedcd2A2=B3A/=B/ | 
[V:2] D,12 | 
[V:3] z12 | 
[V:1] c12 | 
[V:2] z2C,4A,,4F,,2- | 
[V:3] C,4A,,4F,,3G,, | 
[V:1] z12 | 
[V:2] F,,G,,A,,B,,[M:3/1](3C,2D,2E,2(3F,2G,2A,2 | 
[V:3] A,,B,,C,2F,,2G,,2A,,2F,,2 | 
[V:1] z12 | 
[V:2] [M:3/1]B,A,G,F,=E,2F,2G,2C,2- | 
[V:3] G,,2A,,B,,C,2A,,2B,,2C,2 | 
[V:1] z12 | 
[V:2] C,2F,2G,2F,4=E,2 | 
[V:3] F,,4E,,2F,,2G,,4 | 
[V:1] z12 | 
[V:2] F,4z2D,4E,2 | 
[V:3] z2F,,2G,,3A,,B,,2C,2 | 
[V:1] z12 | 
[V:2] F,2G,4G,,2A,,2B,,2 | 
[V:3] A,,2G,,2B,,4C,2G,,2 | 
[V:1] z12 | 
[V:2] C,D,E,3D,C,2=B,,3A,, | 
[V:3] A,,2G,,3F,,E,,2D,,4 | 
[V:1] G4A2B4c2- | 
[V:2] C,4z4z4 | 
[V:3] C,,2C,4B,,2G,,2F,,2 | 
[V:1] cBG2A2F2G2FG | 
[V:2] z12 | 
[V:3] C,3B,,C,2D,2E,2D,E, | 
[V:1] AGFED4z4 | 
[V:2] z4z4G,4- | 
[V:3] F,E,D,C,=B,,3A,,C,4 | 
[V:1] e2defedcd4 | 
[V:2] G,2F,E,D,3E,F,4 | 
[V:3] z4z4B,,2A,,B,, | 
[V:1] G4c4F4 | 
[V:2] E,2C,3B,,C,2D,2A,,2 | 
[V:3] C,B,,A,,G,,A,,2A,,2D,,4 | 
[V:1] D4z2C4E2- | 
[V:2] B,,4C,2E,3F,G,2- | 
[V:3] G,,4C,,4C,3B,, | 
[V:1] E2D4C2E2D2 | 
[V:2] G,4G,8 | 
[V:3] G,,3A,,B,,2C,4B,,2 | 
[V:1] C4G4B4 | 
[V:2] z2C,4E,4D,2- | 
[V:3] C,2E,3D,C,2z2G,,2 | 
[V:1] A4G2B2A2G2- | 
[V:2] D,2C,2E,2D,2C,3D, | 
[V:3] D,,2F,,2C,,2G,,2A,,2C,2- | 
[V:1] G2c4e4d2- | 
[V:2] E,2C,2F,2E,2G,4 | 
[V:3] C,B,,A,,G,,F,,2C,4B,,2- | 
[V:1] d2c2e2d2c2BA | 
[V:2] F,4E,2F,2C,2D,2 | 
[V:3] B,,2A,,2C,2D,2A,,2B,,2 | 
[V:1] G2FED2G4^F2 | 
[V:2] E,2D,E,F,2D,4C,2 | 
[V:3] C,4B,,4A,,4 | 
[V:1] G12 | 
[V:2] D,4z2D,2E,3F, | 
[V:3] G,,8z2E,,2- | 
[V:1] z12 | 
[V:2] G,2F,3E,D,C,F,2E,2 | 
[V:3] E,,2D,,2F,,2G,,2D,,2E,,2 | 
[V:1] z12 | 
[V:2] D,C,B,,A,,G,,2C,4=B,,2 | 
[V:3] F,,4E,,4D,,4 | 
[V:1] z12 | 
[V:2] C,4E,3F,G,3A, | 
[V:3] C,,2E,,3F,,G,,3A,,B,,2- | 
[V:1] z12 | 
[V:2] B,3A,G,F,E,2D,4 | 
[V:3] B,,C,D,2E,2C,4=B,,2 | 
[V:1] G6c4A2 | 
[V:2] z2C,6F,4 | 
[V:3] C,4z2A,,2F,,4 | 
[V:1] B2c3BAGB2c2 | 
[V:2] D,2E,2F,3E,D,2C,2 | 
[V:3] G,,2C,,2z2F,,2G,,2A,,2 | 
[V:1] d4e2f3edc | 
[V:2] F,2G,4A,2B,3A, | 
[V:3] B,,2G,,2C,2F,,2z2G,,2 | 
[V:1] e2d3Gc4=B2 | 
[V:2] G,3F,G,2C,2D,4 | 
[V:3] C,2B,,2G,,2A,,2G,,4 | 
[V:1] c12 ||  
[V:2] C,12 ||  
[V:3] C,,12 ||  
[V:1]  [K:Bb] [K:clef=treble-8][M:2/1]c8- | 
[V:2]  [K:Bb] [K:clef=bass][M:2/1]G,8- | 
[V:3]  [K:Bb] [K:clef=bass][M:2/1]C,8- | 
[V:1] c8- | 
[V:2] G,4_A,3G, | 
[V:3] C,4F,,4- | 
[V:1] c8- | 
[V:2] F,2E,D,C,4- | 
[V:3] F,,2E,,2F,,4- | 
[V:1] c8 | 
[V:2] C,2D,2E,2F,2 | 
[V:3] F,,4C,,4- | 
[V:1] G8- | 
[V:2] G,6F,E, | 
[V:3] C,,2D,,2E,,2F,,2 | 
[V:1] G8- | 
[V:2] D,4z2E,2- | 
[V:3] G,,4C,4- | 
[V:1] G8- | 
[V:2] E,2D,2B,,2E,2- | 
[V:3] C,2B,,2G,,2C,2- | 
[V:1] G8 | 
[V:2] E,2D,E,D,2E,2 | 
[V:3] C,2B,,A,,G,,4 | 
[V:1] A8- | 
[V:2] F,8- | 
[V:3] F,,8 | 
[V:1] A8- | 
[V:2] F,8 | 
[V:3] z4D,,4- | 
[V:1] A8- | 
[V:2] z4C,4- | 
[V:3] D,,2E,,2F,,4- | 
[V:1] A8 | 
[V:2] C,2D,2C,4 | 
[V:3] F,,2D,,2F,,2E,,F,, | 
[V:1] B8- | 
[V:2] B,,4D,4- | 
[V:3] G,,4D,,2G,,2- | 
[V:1] B8- | 
[V:2] D,2E,2F,4 | 
[V:3] G,,F,,E,,2D,,4 | 
[V:1] B8- | 
[V:2] G,4D,2G,2- | 
[V:3] E,,4G,,4- | 
[V:1] B8 | 
[V:2] G,F,E,2D,4 | 
[V:3] G,,8 | 
[V:1] c8- | 
[V:2] (3:2:2C,8C,4- | 
[V:3] C,,8 | 
[V:1] c8 | 
[V:2] (3C,4F,4E,4- | 
[V:3] (3:2:2G,,8C,,4- | 
[V:1] G8- | 
[V:2] (3E,4E,6C,2 | 
[V:3] (3:2:2C,,4C,8- | 
[V:1] G8 | 
[V:2] (3E,4D,6E,2 | 
[V:3] (3:2:2C,4G,,8 | 
[V:1] A8- | 
[V:2] F,8- | 
[V:3] D,8 | 
[V:1] A8 | 
[V:2] (3:2:2F,4F,8 | 
[V:3] D,8 | 
[V:1] B8- | 
[V:2] (3G,6F,2G,4 | 
[V:3] (3:2:2G,,8G,,4- | 
[V:1] B8 | 
[V:2] (3:2:2E,4D,8 | 
[V:3] (3:2:2G,,4G,,8 | 
[V:1] c8 | 
[V:2] C,8 | 
[V:3] (3A,,4F,,4C,,4- | 
[V:1] G8 | 
[V:2] E,4(3:2:2F,2G,4 | 
[V:3] (3:2:4C,,2D,,2E,,4C,,4 | 
[V:1] A8 | 
[V:2] C,4F,4 | 
[V:3] F,,8 | 
[V:1] B8 | 
[V:2] E,2D,C,D,4 | 
[V:3] z4G,,4 | 
[V:1] c4G4 | 
[V:2] C,2E,3D,C,2 | 
[V:3] C,,2C,3D,E,2 | 
[V:1] A4B4 | 
[V:2] z2D,3E,F,2 | 
[V:3] F,E,D,C,D,4 | 
[V:1] c2G2A2B2 | 
[V:2] G,2E,2D,4 | 
[V:3] C,4z2G,,2 | 
[V:1] !fermata!c8- | 
[V:2] C,4z2C,2 | 
[V:3] A,,3B,,C,2A,,2- | 
[V:1] c8- | 
[V:2] F,3C,F,2G,2 | 
[V:3] A,,2F,,4E,,2 | 
[V:1] c8- | 
[V:2] _A,3B,A,2G,F, | 
[V:3] F,,3G,,F,,2E,,D,, | 
[V:1] c8 | 
[V:2] !fermata!E,8 | 
[V:3] !fermata!C,,8 | 
[V:1] z8 | 
[V:2] F,6E,D, | 
[V:3] z8 | 
[V:1] z4c4- | 
[V:2] E,4F,4 | 
[V:3] z8 | 
[V:1] c2BAB4 | 
[V:2] C,2E,2D,4 | 
[V:3] z8 | 
[V:1] c4G2B2 | 
[V:2] C,2E,3D,G,2- | 
[V:3] z8 | 
[V:1] A4G4- | 
[V:2] G,2F,2G,3F, | 
[V:3] z4C,4- | 
[V:1] G8 | 
[V:2] E,2D,C,D,4 | 
[V:3] C,2B,,A,,B,,4 | 
[V:1] G3AB2G2- | 
[V:2] C,2E,3D,D,2- | 
[V:3] C,4G,,2B,,2 | 
[V:1] G2F2G3F | 
[V:2] D,2C,2D,2E,2 | 
[V:3] A,,4G,,4 | 
[V:1] E2DCD4 | 
[V:2] C,2B,,_A,,B,,4 | 
[V:3] _A,,4G,,4 | 
[V:1] C8 | 
[V:2] C,8 | 
[V:3] z4C,,4 | 
[V:1] C4F4 | 
[V:2] A,,8 | 
[V:3] F,,4D,,4 | 
[V:1] D4G4 | 
[V:2] z4G,,4 | 
[V:3] G,,4E,,4 | 
[V:1] E4C4 | 
[V:2] C,4A,,4 | 
[V:3] C,,2C,4A,,2 | 
[V:1] z2F4G2- | 
[V:2] D,4B,,4 | 
[V:3] B,,3C,D,2G,,2 | 
[V:1] GAB2c3d | 
[V:2] G,,4z2C,2- | 
[V:3] B,,4A,,3G,, | 
[V:1] e2d3cA2 | 
[V:2] C,2D,3=E,F,2 | 
[V:3] C,2B,,3C,D,2 | 
[V:1] B2G4F2 | 
[V:2] G,3A,B,2A,2- | 
[V:3] G,,4z4 | 
[V:1] c4d3e | 
[V:2] A,G,=E,2F,2D,2- | 
[V:3] z4B,,4- | 
[V:1] f2e2d2e2- | 
[V:2] D,2C,2G,3F, | 
[V:3] B,,2C,2G,,2C,2- | 
[V:1] edc4=B2 | 
[V:2] G,2E,2D,4 | 
[V:3] C,B,,C,2G,,4 | 
[V:1] c4A2B2 | 
[V:2] C,4z2G,,2 | 
[V:3] z2C,,2F,,2E,,2 | 
[V:1] E2D2G3F | 
[V:2] C,2B,,2G,,2D,2 | 
[V:3] C,,2G,,2z2G,,2 | 
[V:1] E2D3EF2- | 
[V:2] z2D,2G,2F,2 | 
[V:3] C,2B,,2G,,2D,2- | 
[V:1] F2D4d2- | 
[V:2] D,2A,3G,F,2 | 
[V:3] D,E,F,4B,,2- | 
[V:1] d2cBc2Bc | 
[V:2] G,F,E,D,E,4 | 
[V:3] B,,2C,D,A,,4 | 
[V:1] d4z2A2- | 
[V:2] D,8- | 
[V:3] z2B,,3A,,F,,2- | 
[V:1] A2B4AG | 
[V:2] D,8 | 
[V:3] F,,D,,G,,4F,,E,, | 
[V:1] A4D4 | 
[V:2] D,4B,,3C, | 
[V:3] F,,4G,,2B,,2- | 
[V:1] z2F3GA2 | 
[V:2] D,2B,,4A,,2 | 
[V:3] B,,C,D,3B,,C,2 | 
[V:1] B2G4^F2 | 
[V:2] G,,2D,4C,2 | 
[V:3] D,2B,,2A,,4 | 
[V:1] G8- | 
[V:2] D,8 | 
[V:3] G,,8 | 
[V:1] G8- | 
[V:2] (3:2:2D,8C,4 | 
[V:3] (3:2:2G,,8C,,4 | 
[V:1] G8 | 
[V:2] (3B,,4G,,6A,,2 | 
[V:3] (3E,,6F,,2G,,4- | 
[V:1] z8 | 
[V:2] (3:2:4B,,2C,2D,4E,4 | 
[V:3] (3:2:4G,,2E,,2F,,4G,,4 | 
[V:1] z4F4 | 
[V:2] (3:2:4C,6=B,, A,,=B,,4 | 
[V:3] (3:2:2E,,4D,,8 | 
[V:1] (3E4C6D2 | 
[V:2] (3:2:4C,6D,2E,2F,2 | 
[V:3] (3:2:2C,,8C,4- | 
[V:1] (3:2:4E2F2G6F2 | 
[V:2] (3:2:2G,4C,8 | 
[V:3] (3:2:4C,2D,2E,6D,2 | 
[V:1] (3:2:2E4D8 | 
[V:2] (3:2:2C,4G,,8 | 
[V:3] (3C,4=B,,6A,,2 | 
[V:1] E8 & C8 ||  
[V:2] G,8 ||  
[V:3] C,8 ||  
[V:1]  [K:Bb] [K:clef=treble-8][M:2/1]c8- | 
[V:2]  [K:Bb] [K:clef=bass][M:2/1]A,8- | 
[V:3]  [K:Bb] [K:clef=bass][M:2/1]F,,8- | 
[V:1] c4A4 | 
[V:2] A,4F,4 | 
[V:3] F,,8 | 
[V:1] B6AG | 
[V:2] G,8 | 
[V:3] E,,8 | 
[V:1] A8 | 
[V:2] F,8 | 
[V:3] F,,8 | 
[V:1] G8 | 
[V:2] E,6F,2 | 
[V:3] C,6D,2 | 
[V:1] C8 | 
[V:2] G,6F,E, | 
[V:3] E,6D,C, | 
[V:1] F6ED | 
[V:2] D,8 | 
[V:3] B,,8 | 
[V:1] E6F2 | 
[V:2] C,8 | 
[V:3] z4C,4- | 
[V:1] G8- | 
[V:2] E,8 | 
[V:3] C,2B,,A,,C,4 | 
[V:1] G8 | 
[V:2] D,8 | 
[V:3] G,,8 | 
[V:1] _A6G2 | 
[V:2] F,8 | 
[V:3] z4F,,4- | 
[V:1] F8 | 
[V:2] _A,8 | 
[V:3] F,,2E,,D,,F,,4 | 
[V:1] E8 | 
[V:2] G,8- | 
[V:3] C,,8 | 
[V:1] z4C4- | 
[V:2] G,8- | 
[V:3] z2C,4E,2- | 
[V:1] C2D4E2 | 
[V:2] G,8 | 
[V:3] E,D,B,,2G,,2C,2 | 
[V:1] C2G3AB2- | 
[V:2] z4G,3A, | 
[V:3] A,,2G,,2C,2B,,2 | 
[V:1] Bcd2e2de | 
[V:2] B,2A,2G,2F,G, | 
[V:3] G,,4C,4 | 
[V:1] fedcB2AB | 
[V:2] _A,G,F,E,D,2E,F, | 
[V:3] z4D,2C,D, | 
[V:1] cBAGF2G2 | 
[V:2] G,F,E,D,C,2D,2 | 
[V:3] E,D,C,B,,A,,2G,,2 | 
[V:1] C2e3dc2 | 
[V:2] E,3D,C,4 | 
[V:3] z2C,3B,,A,,2 | 
[V:1] Bcd2G2c2- | 
[V:2] D,2B,,2C,2E,2 | 
[V:3] G,,4E,,2C,,2 | 
[V:1] c2B2E2e2- | 
[V:2] D,4C,4- | 
[V:3] G,,4_A,,2C,2- | 
[V:1] edf3edc | 
[V:2] C,2D,3E,F,2 | 
[V:3] C,2B,,3C,D,2 | 
[V:1] d2c4=B2 | 
[V:2] D,2E,2D,4 | 
[V:3] B,,2C,2G,,4 | 
[V:1] c8 |]  
[V:2] C,8 |]  
[V:3] C,,8 |]  



